X: 254
T: Tina Singu
B: steve song book
B: kameruka choir
M:4/4
Q: 1/4=100
K:F
V:1 
|:c2c2c2c2|cc cc -c2 B2|AA-A2 GG-G2|FF-F6:|
|:AA-A6|BB-B6|cc-c2 BB-B2|AA-A6:|
|:F3 C FEDC|B,3D GFED|C3G cBAG|FGAG F2 C2:|
W: As a round..
W: 
W: Tina singu leluvutae o Watsha, watsha, watsha.
W: Tina singu leluvutae o Watsha, watsha, watsha.
W: 
W: Watsha, watsha, watsha, watsha, watsha.
W: Watsha, watsha, watsha, watsha, watsha.
W: 
W: La, la la la la la, la, la la la la la, la, la la la la la, la...
% abcbook-tune_id 62a1cdb12df8ec4f69332ec5


% abcbook-boost 0
% abcbook-tablature 
% abcbook-transpose 
% abcbook-lastupdated 1654772027650
% abcbook-soundfonts 
% abcbook-repeats 1


